dist/svg/static/electric-range-large.svg

<svg xmlns="http://www.w3.org/2000/svg" width="48" height="48" viewBox="0 0 48 48"><g fill="none" stroke="currentColor" stroke-miterlimit="10"><path d="M16 44.5H2M28.5 38V6c0-1.183-.817-2.5-2-2.5h-19c-1.183 0-2 1.317-2 2.5v38.5M43.5 13.5v20c0 1.179-.821 2-2 2h-2a2 2 0 0 1-2-2v-11c0-1.1-.9-2-2-2H31M41.5 6.5V3M45.5 6.5V3M47.5 9s.14 4.5-4 4.5-4-4.5-4-4.5V6.5h8V9z"/><g><path d="M19.5 9.5l-8 13h10l-10 13"/><path d="M11.5 29v6.5H18"/></g><g><path d="M18.5 39v9M45.5 43.5h-27M45.5 39v9"/></g></g></svg>

<?xml version="1.0" encoding="UTF-8" standalone="no"?>
<svg width="48px" height="48px" viewBox="0 0 48 48" version="1.1" xmlns="http://www.w3.org/2000/svg" xmlns:xlink="http://www.w3.org/1999/xlink">
    <!-- Generator: sketchtool 46.2 (44496) - http://www.bohemiancoding.com/sketch -->
    <title>electric-range-large</title>
    <desc>Created with sketchtool.</desc>
    <defs></defs>
    <g id="icons-published" stroke="none" stroke-width="1" fill="none" fill-rule="evenodd">
        <g id="briefing" transform="translate(-1728.000000, -538.000000)"></g>
        <g id="electric-range-large" stroke="#000000">
            <path d="M16,44.5 L2,44.5 M28.5,38 L28.5,6 C28.5,4.8 27.7,3.5 26.5,3.5 L7.5,3.5 C6.3,3.5 5.5,4.8 5.5,6 L5.5,44.5 M43.5,13.5 L43.5,33.5 C43.5,34.7 42.7,35.5 41.5,35.5 L39.5,35.5 C38.4,35.5 37.5,34.6 37.5,33.5 L37.5,22.5 C37.5,21.4 36.6,20.5 35.5,20.5 L31,20.5 M41.5,6.5 L41.5,3 M45.5,6.5 L45.5,3" id="Shape"></path>
            <path d="M47.5,9 C47.5,9 47.6,13.5 43.5,13.5 C39.4,13.5 39.5,9 39.5,9 L39.5,6.5 L47.5,6.5 L47.5,9 Z" id="Path"></path>
            <polyline id="Shape" points="19.5 9.5 11.5 22.5 21.5 22.5 11.5 35.5"></polyline>
            <polyline id="Shape" points="11.5 29 11.5 35.5 18 35.5"></polyline>
            <path d="M18.5,39 L18.5,48 M45.5,43.5 L18.5,43.5 M45.5,39 L45.5,48" id="Shape"></path>
        </g>
    </g>
</svg>
